!!!!SEGMENT: pl-kk--kk-i-329--002_costanzi-giovanni-battista--confitebor-magna-opera.krn
!!!cenid: 17xx:1921
!!!COM: Costanzi, Giovanni Battista
!!!COM-rismID: pe20000434
!!!CDT: 1704-1778
!!!CNT: Italian
!!!OPR: Confitebor
!!!OTL: Magna opera
!!!OMV: 002
!!!PDT:
!!!AGN: Sacred
!!!SMS-siglum: PL-Kk
!!!SMS-shelfmark: Kk.I.329
!!!SMS-shelfwork: 001-002 M
!!!SMS-variant:
!!!SMS-altvar:
!!!NIFC-rismSourceID: 1001143621
!!!NIFC-rismChildID: 1001143621
!!!NIFC-islandoraID: pl-kk:5543
!!!URL-pdf-islandora: https://repozytorium.nifc.pl/islandora/object/pl-kk%3A5543/datastream/PDF/view
!!!URL-scan: https://polish.musicsources.pl/pl/lokalizacje/galeria/rekopisy/5948 @EN{Scan on Polish Music Sources Website} @PL{Skany w portalu Dziedzictwo Muzyki Polskiej w otwartym dostępie}
!!!ONB-nifc: UWAGA: części Confitebor: 1. Confitebor, 2. Magna opera, 3. Confessio, 4. Memoriam fecit, 5. Memor erit, 6. Fidelia omnia, 7. Redemptionem, 8. Sanctum, 9. Intellectus bonus, 10. Gloria Patri, 11. Sicut erat, 12. Amen
!!!AIN: 2 alto 2 empty 1 organ 1 tenor 2 vox
!!!key:
**kern	**fba	**kern	**kern	**kern	**kern	**kern	**kern	**kern	**text
*part8	*	*part7	*part6	*part5	*part4	*part3	*part2	*part1	*part1
*group	*	*group2	*group2	*group2	*group2	*group1	*group1	*group1	*group1
*staff8	*	*staff7	*staff6	*staff5	*staff4	*staff3	*staff2	*staff1	*staff1
*Iorgan	*	*Iempty	*Itenor	*Ialto	*Ivox	*Iempty	*Ialto	*Ivox	*
*I"[Organo]	*	*I"Baſso di Ripieno	*I"Tenore di Ripieno	*I"Alto di Ripieno	*I"Canto di Ripieno	*I"Baſso di Concerto	*I"Alto di Concerto	*I"Canto di Concerto	*
*I'[org]	*	*I'B rip	*I'T rip	*I'A rip	*I'S rip	*I'B conc	*I'A conc	*I'S conc	*
*clefF4	*	*clefF4	*clefC4	*clefC3	*clefC1	*clefF4	*clefC3	*clefC1	*
*k[f#]	*	*k[f#]	*k[f#]	*k[f#]	*k[f#]	*k[f#]	*k[f#]	*k[f#]	*
*G:	*	*G:	*G:	*G:	*G:	*G:	*G:	*G:	*
*M4/4	*	*M4/4	*M4/4	*M4/4	*M4/4	*M4/4	*M4/4	*M4/4	*
*met(c)	*	*met(c)	*met(c)	*met(c)	*met(c)	*met(c)	*met(c)	*met(c)	*
=1	=1	=1	=1	=1	=1	=1	=1	=1	=1
!LO:TX:i:a:t=C[ant].o Solo	!	!	!	!	!	!	!	!LO:TX:a:i:t=Solo	!
!LO:TX:i:a:t=And[an].te	!	!LO:TX:a:t=Magna opera Tacet	!LO:TX:a:t=Magna Opera Tacet	!LO:TX:a:t=Magna opera Tacet	!LO:TX:a:t=Magna opera Tacet	!LO:TX:t=P:problem=nie ma nic napisane, ale najprawdopodobniej tacet	!LO:TX:a:t=Magna Opera Tacet	!LO:TX:b:t=2	!
!LO:TX:b:i:t=Magna opera	!	!	!	!	!	!	!	!LO:TX:a:i:t=Andante	!
!LO:TX:a:t=P:problem=napis "And.te" na pięciolinii przed kluczem	!	!	!	!	!	!	!	!LO:TX:a:t=P:problem=napis "Andante" na pięciolinii przed kluczem	!
!	!	!	!	!	!	!	!	!LO:N:vis=0	!
8d\	X #3	1ryy	1ryy	1ryy	1ryy	1ryy	1ryy	0r	.
4d\	.	.	.	.	.	.	.	.	.
16e\LL	.	.	.	.	.	.	.	.	.
16c\JJ	.	.	.	.	.	.	.	.	.
8B\	.	.	.	.	.	.	.	.	.
4B\	X 6	.	.	.	.	.	.	.	.
16c\LL	.	.	.	.	.	.	.	.	.
16A\JJ	.	.	.	.	.	.	.	.	.
=2	=2	=2	=2	=2	=2	=2	=2	=2	=2
8G\	.	1ryy	1ryy	1ryy	1ryy	1ryy	1ryy	.	.
4G\	.	.	.	.	.	.	.	.	.
16A\LL	.	.	.	.	.	.	.	.	.
16F#\JJ	.	.	.	.	.	.	.	.	.
!LO:LB:g=original	!	!	!	!	!	!	!	!	!
8G\L	.	.	.	.	.	.	.	.	.
8D\J	.	.	.	.	.	.	.	.	.
4GG/	.	.	.	.	.	.	.	.	.
=3	=3	=3	=3	=3	=3	=3	=3	=3	=3
!LO:TX:a:t=C.o	!	!	!	!	!	!	!	!	!
8G\L	.	1ryy	1ryy	1ryy	1ryy	1ryy	1ryy	8dd\	Ma-
8G\	.	.	.	.	.	.	.	4dd\	-gna
8G\	.	.	.	.	.	.	.	.	.
8G\J	.	.	.	.	.	.	.	(>16ee\LL	.
.	.	.	.	.	.	.	.	16cc\JJ)	.
8G\L	.	.	.	.	.	.	.	8b\	o-
8G\	.	.	.	.	.	.	.	4b\	-pe-
8G\	.	.	.	.	.	.	.	.	.
8D\J	X 7	.	.	.	.	.	.	16cc\LL	-ra
.	.	.	.	.	.	.	.	16a\JJ	.
=4	=4	=4	=4	=4	=4	=4	=4	=4	=4
8BB\L	X 6	1ryy	1ryy	1ryy	1ryy	1ryy	1ryy	8g\	do-
8E\	.	.	.	.	.	.	.	4g\	.
8C\	.	.	.	.	.	.	.	.	.
8AA\J	X 6	.	.	.	.	.	.	16a\LL	-mi-
.	.	.	.	.	.	.	.	16f#\JJ	.
.	.	.	.	.	.	.	.	8qqa/	.
8BB/L	X 6	.	.	.	.	.	.	4g\	-ni
8BB/	.	.	.	.	.	.	.	.	.
8BB/	.	.	.	.	.	.	.	4r	.
8AA/J	.	.	.	.	.	.	.	.	.
!	!	!	!	!	!	!	!	!LO:PB:g=original	!
=5	=5	=5	=5	=5	=5	=5	=5	=5	=5
8GG/L	.	1ryy	1ryy	1ryy	1ryy	1ryy	1ryy	4dd\	ex-
8GG/	.	.	.	.	.	.	.	.	.
8C/	.	.	.	.	.	.	.	16cc\LL	-qui-
.	.	.	.	.	.	.	.	16b\	.
8C/J	.	.	.	.	.	.	.	16a\	.
.	.	.	.	.	.	.	.	16g\JJ	.
!	!	!	!	!	!	!	!	!LO:TX:a:t=P:problem=nieklarowny zapis przednutki	!
.	.	.	.	.	.	.	.	8qqg/	.
8D\L	.	.	.	.	.	.	.	4.f#/	-ſi-
8d\	.	.	.	.	.	.	.	.	.
8c\	.	.	.	.	.	.	.	.	.
8B\J	X 6	.	.	.	.	.	.	8g/	-ta in
!LO:LB:g=original	!	!	!	!	!	!	!	!	!
=6	=6	=6	=6	=6	=6	=6	=6	=6	=6
8c\L	.	1ryy	1ryy	1ryy	1ryy	1ryy	1ryy	8e/	om-
8A\	.	.	.	.	.	.	.	8d/	-nes
8B\	.	.	.	.	.	.	.	[>4g\	vo-
8A\J	.	.	.	.	.	.	.	.	.
4G\	.	.	.	.	.	.	.	8g\]	.
.	.	.	.	.	.	.	.	16a\LL	-Lun-
.	.	.	.	.	.	.	.	16b\JJ	.
8A\L	.	.	.	.	.	.	.	8cc\	-ta-
8D\J	X 7	.	.	.	.	.	.	8cc\	-tes
=7	=7	=7	=7	=7	=7	=7	=7	=7	=7
!LO:TX:t=P:problem=mixed beam	!	!	!	!	!	!	!	!	!
8G\L	X 4	1ryy	1ryy	1ryy	1ryy	1ryy	1ryy	8cc\	e-
8GG/J	X 3	.	.	.	.	.	.	8b\	-iuſ
8G\L	.	.	.	.	.	.	.	[>4gg\	vo-
8A\J	.	.	.	.	.	.	.	.	.
!	!	!	!	!	!	!	!	!LO:LB:g=original	!
!	!	!	!	!	!	!	!	!LO:TX:a:t=P:problem=brak zakończenia ligatury	!
8B\L	.	.	.	.	.	.	.	8gg\]	.
.	.	.	.	.	.	.	.	8qff#/	.
8c\	.	.	.	.	.	.	.	8ee\	-Lun-
8c\	.	.	.	.	.	.	.	8cc\	-ta-
8c#X\J	.	.	.	.	.	.	.	8b\	-tes
=8	=8	=8	=8	=8	=8	=8	=8	=8	=8
8d\L	.	1ryy	1ryy	1ryy	1ryy	1ryy	1ryy	4b\	ei-
8D\	.	.	.	.	.	.	.	.	.
8D\	.	.	.	.	.	.	.	4a\	-us
8D\J	.	.	.	.	.	.	.	.	.
8F#\L	X 6	.	.	.	.	.	.	4dd\	vo-
8F#\	.	.	.	.	.	.	.	.	.
8F#\	.	.	.	.	.	.	.	4a\	-lun-
8F#\J	.	.	.	.	.	.	.	.	.
=9	=9	=9	=9	=9	=9	=9	=9	=9	=9
8G\L	.	1ryy	1ryy	1ryy	1ryy	1ryy	1ryy	16b\LL	-ta-
.	.	.	.	.	.	.	.	16g\	.
8G\	.	.	.	.	.	.	.	16f#\	.
.	.	.	.	.	.	.	.	16g\JJ	.
8G\	.	.	.	.	.	.	.	16a\LL	.
.	.	.	.	.	.	.	.	16g\	.
8G\J	.	.	.	.	.	.	.	16f#\	.
.	.	.	.	.	.	.	.	16g\JJ	.
!LO:LB:g=original	!	!	!	!	!	!	!	!	!
8G\L	.	.	.	.	.	.	.	4dd\	.
8G\	.	.	.	.	.	.	.	.	.
8G\	.	.	.	.	.	.	.	4g\	.
8G\J	.	.	.	.	.	.	.	.	.
=10	=10	=10	=10	=10	=10	=10	=10	=10	=10
8F#\L	X 6	1ryy	1ryy	1ryy	1ryy	1ryy	1ryy	16a/LL	.
.	.	.	.	.	.	.	.	16f#/	.
8F#\	.	.	.	.	.	.	.	16e/	.
.	.	.	.	.	.	.	.	16f#/JJ	.
!	!	!	!	!	!	!	!	!LO:TX:a:t=P::problem=nieprecyzyjny zapis czterech kolejnych szesnastek	!
8F#\	.	.	.	.	.	.	.	16g/LL	.
.	.	.	.	.	.	.	.	16e/	.
8F#\J	.	.	.	.	.	.	.	16d/	.
.	.	.	.	.	.	.	.	16e/JJ	.
!	!	!	!	!	!	!	!	!LO:LB:g=original	!
8F#\L	.	.	.	.	.	.	.	4dd\	.
8F#\	.	.	.	.	.	.	.	.	.
!	!	!	!	!	!	!	!	!LO:N:vis=4.	!
8F#\	.	.	.	.	.	.	.	4f#\	.
8F#\J	.	.	.	.	.	.	.	.	.
=11	=11	=11	=11	=11	=11	=11	=11	=11	=11
!LO:TX:t=P:problem=mixed beam	!	!	!	!	!	!	!	!	!
8E\L	.	1ryy	1ryy	1ryy	1ryy	1ryy	1ryy	8g\L	.
8E\	.	.	.	.	.	.	.	8ee\J	.
8AA/	.	.	.	.	.	.	.	4g\	.
8AA/J	X 7	.	.	.	.	.	.	.	.
8D\L	.	.	.	.	.	.	.	16f#X/LL	.
.	.	.	.	.	.	.	.	16d/	.
8D\	.	.	.	.	.	.	.	16e/	.
.	.	.	.	.	.	.	.	16f#/JJ	.
8D\	.	.	.	.	.	.	.	16g\LL	.
.	.	.	.	.	.	.	.	16a\	.
8D\J	.	.	.	.	.	.	.	16b\	.
.	.	.	.	.	.	.	.	16cc#X\JJ	.
=12	=12	=12	=12	=12	=12	=12	=12	=12	=12
8D\L	.	1ryy	1ryy	1ryy	1ryy	1ryy	1ryy	16dd\LL	.
.	.	.	.	.	.	.	.	16cc#X\	.
8d\	.	.	.	.	.	.	.	16ff#\	.
.	.	.	.	.	.	.	.	16ee\J	.
8B\	.	.	.	.	.	.	.	8dd\J	.
8G\J	.	.	.	.	.	.	.	8g/	-tes
!LO:TX:t=P:problem=mixed beam	!	!	!	!	!	!	!	!	!
8A\L	.	.	.	.	.	.	.	32f#/LLL	e-
.	.	.	.	.	.	.	.	32e/JJ	.
.	.	.	.	.	.	.	.	8.d/J	.
8A\	.	.	.	.	.	.	.	.	.
8AA/	X #	.	.	.	.	.	.	4e/	.
8AA/J	5 3	.	.	.	.	.	.	.	.
!LO:LB:g=original	!	!	!	!	!	!	!	!LO:LB:g=original	!
=13	=13	=13	=13	=13	=13	=13	=13	=13	=13
8D\	.	1ryy	1ryy	1ryy	1ryy	1ryy	1ryy	4d/	-ius
4D\	.	.	.	.	.	.	.	.	.
.	.	.	.	.	.	.	.	4r	.
16E\LL	.	.	.	.	.	.	.	.	.
16D\JJ	.	.	.	.	.	.	.	.	.
8G\	.	.	.	.	.	.	.	2r	.
4F#\	.	.	.	.	.	.	.	.	.
16E\LL	.	.	.	.	.	.	.	.	.
16D\JJ	.	.	.	.	.	.	.	.	.
=14	=14	=14	=14	=14	=14	=14	=14	=14	=14
8B\L	.	1ryy	1ryy	1ryy	1ryy	1ryy	1ryy	2r	.
16A\L	.	.	.	.	.	.	.	.	.
16G\JJ	.	.	.	.	.	.	.	.	.
!LO:TX:t=P:problem=mixed beam	!	!	!	!	!	!	!	!	!
8A\L	.	.	.	.	.	.	.	.	.
8AA/J	.	.	.	.	.	.	.	.	.
!LO:TX:a:t=C.o	!	!	!	!	!	!	!	!	!
4D\	.	.	.	.	.	.	.	8a\	ma-
.	.	.	.	.	.	.	.	4a\	-gna
4r	.	.	.	.	.	.	.	.	.
.	.	.	.	.	.	.	.	16dd\LL	.
.	.	.	.	.	.	.	.	16cc\JJ	.
=15	=15	=15	=15	=15	=15	=15	=15	=15	=15
!LO:TX:t=P:problem=mixed beam	!	!	!	!	!	!	!	!	!
8D\L	X 4	1ryy	1ryy	1ryy	1ryy	1ryy	1ryy	4b\	o-
8D\	.	.	.	.	.	.	.	.	.
8D\	X 3	.	.	.	.	.	.	8a\	-pe-
8GG#X/J	6 5	.	.	.	.	.	.	8b\	-ra
8AA/L	X 4	.	.	.	.	.	.	8.cc\L	do-
8AA/	X 3	.	.	.	.	.	.	.	.
.	.	.	.	.	.	.	.	32b\LL	.
.	.	.	.	.	.	.	.	32cc\JJJ	.
8BB/	X #	.	.	.	.	.	.	4dd\	.
8BB/J	X 6	.	.	.	.	.	.	.	.
!LO:LB:g=original	!	!	!	!	!	!	!	!LO:LB:g=original	!
=16	=16	=16	=16	=16	=16	=16	=16	=16	=16
8C\L	.	1ryy	1ryy	1ryy	1ryy	1ryy	1ryy	16ee\LL	.
.	.	.	.	.	.	.	.	16cc\	.
8C\	.	.	.	.	.	.	.	16b\	.
.	.	.	.	.	.	.	.	16a\JJ	.
8D\	X 7	.	.	.	.	.	.	24dd\LL	.
.	.	.	.	.	.	.	.	24b\	.
.	.	.	.	.	.	.	.	24a\JJ	.
8E\J	X 3	.	.	.	.	.	.	8g#X\	-mi-
!LO:TX:t=P:problem=mixed beam	!	!	!	!	!	!	!	!	!
8AA/L	.	.	.	.	.	.	.	4a\	-ni
8A\	.	.	.	.	.	.	.	.	.
8A\	.	.	.	.	.	.	.	[>4cc\	ex-
8G\J	.	.	.	.	.	.	.	.	.
=17	=17	=17	=17	=17	=17	=17	=17	=17	=17
8F#\L	.	1ryy	1ryy	1ryy	1ryy	1ryy	1ryy	8cc\]	.
8F#\	.	.	.	.	.	.	.	8a\	-qui-
8F#\	.	.	.	.	.	.	.	8d/	-ſi-
8F#\J	.	.	.	.	.	.	.	8cc\	-ta in
8G\L	.	.	.	.	.	.	.	4cc\	om-
8G\	X 4	.	.	.	.	.	.	.	.
8G\	X 3	.	.	.	.	.	.	4b\	-nes
8G\J	.	.	.	.	.	.	.	.	.
=18	=18	=18	=18	=18	=18	=18	=18	=18	=18
8BB/L	.	1ryy	1ryy	1ryy	1ryy	1ryy	1ryy	4dd\	vo-
8BB/	.	.	.	.	.	.	.	.	.
8C/	.	.	.	.	.	.	.	16cc\LL	-Lun-
.	.	.	.	.	.	.	.	16b\	.
8C/J	.	.	.	.	.	.	.	16a\	.
.	.	.	.	.	.	.	.	16g\JJ	.
!	!	!	!	!	!	!	!	!LO:LB:g=original	!
8D/L	.	.	.	.	.	.	.	16f#\LL	-ta-
.	.	.	.	.	.	.	.	16ee\JJ	.
8D/	.	.	.	.	.	.	.	4.dd\	.
8D/	.	.	.	.	.	.	.	.	.
8D/J	.	.	.	.	.	.	.	.	.
=19	=19	=19	=19	=19	=19	=19	=19	=19	=19
*	*below	*	*	*	*	*	*	*	*
8Cn/L	X 7	1ryy	1ryy	1ryy	1ryy	1ryy	1ryy	16f#\LL	.
.	.	.	.	.	.	.	.	16g\	.
8C/	X 4	.	.	.	.	.	.	16a\	.
*	*above	*	*	*	*	*	*	*	*
.	.	.	.	.	.	.	.	16b\JJ	.
8C/	.	.	.	.	.	.	.	16cc\LL	.
.	.	.	.	.	.	.	.	16a\	.
8C/J	.	.	.	.	.	.	.	16g\	.
.	.	.	.	.	.	.	.	16f#\JJ	.
8BB/L	.	.	.	.	.	.	.	16g\LL	.
.	.	.	.	.	.	.	.	16a\	.
8BB/	.	.	.	.	.	.	.	16b\	.
.	.	.	.	.	.	.	.	16cc\JJ	.
8BB/	.	.	.	.	.	.	.	16dd\LL	.
.	.	.	.	.	.	.	.	16b\	.
8BB/J	.	.	.	.	.	.	.	16a\	.
.	.	.	.	.	.	.	.	16g#X\JJ	.
!LO:LB:g=original	!	!	!	!	!	!	!	!	!
=20	=20	=20	=20	=20	=20	=20	=20	=20	=20
8FF#X/L	.	1ryy	1ryy	1ryy	1ryy	1ryy	1ryy	16a\LL	.
.	.	.	.	.	.	.	.	16b\	.
8FF#/	.	.	.	.	.	.	.	16cc\	.
.	.	.	.	.	.	.	.	16dd\JJ	.
8FF#/	.	.	.	.	.	.	.	16ee\LL	.
.	.	.	.	.	.	.	.	16cc\	.
8FF#/J	.	.	.	.	.	.	.	16b\	.
.	.	.	.	.	.	.	.	16a\JJ	.
!	!	!	!	!	!	!	!	!LO:LB:g=original	!
!LO:TX:t=P:problem=mixed beam	!	!	!	!	!	!	!	!LO:TX:a:t=P:problem=kreseczka nad nutą	!
8GG/L	.	.	.	.	.	.	.	8.b\L	.
8G\	.	.	.	.	.	.	.	.	.
.	.	.	.	.	.	.	.	32a\LL	.
.	.	.	.	.	.	.	.	32b\JJJ	.
8A\	.	.	.	.	.	.	.	4cc\	.
8F#\J	X 5	.	.	.	.	.	.	.	.
=21	=21	=21	=21	=21	=21	=21	=21	=21	=21
8G\L	.	1ryy	1ryy	1ryy	1ryy	1ryy	1ryy	8.bm>\L	.
8G\	.	.	.	.	.	.	.	.	.
.	.	.	.	.	.	.	.	32a\LL	.
.	.	.	.	.	.	.	.	32b\JJJ	.
8A\	.	.	.	.	.	.	.	4cc\	.
8F#\J	.	.	.	.	.	.	.	.	.
8G\L	.	.	.	.	.	.	.	8b\L	.
8G\	.	.	.	.	.	.	.	16a\L	.
.	.	.	.	.	.	.	.	16b\JJ	.
8c\	.	.	.	.	.	.	.	16ee\LL	.
.	.	.	.	.	.	.	.	16cc\JJ	.
8c\J	.	.	.	.	.	.	.	16b\LL	-tes
.	.	.	.	.	.	.	.	16a\JJ	.
=22	=22	=22	=22	=22	=22	=22	=22	=22	=22
8d\L	.	1ryy	1ryy	1ryy	1ryy	1ryy	1ryy	4d/	e-
8d\	.	.	.	.	.	.	.	.	.
8d\	.	.	.	.	.	.	.	4aM>\	.
8d\J	.	.	.	.	.	.	.	.	.
8e\L	.	.	.	.	.	.	.	8g\	-ius
8e\	.	.	.	.	.	.	.	8r	.
8c\	.	.	.	.	.	.	.	16g\LL	vo-
.	.	.	.	.	.	.	.	16a\JJ	.
8c\J	.	.	.	.	.	.	.	16b\LL	-lun-
.	.	.	.	.	.	.	.	16cc\JJ	.
!	!	!	!	!	!	!	!	!LO:LB:g=original	!
=23	=23	=23	=23	=23	=23	=23	=23	=23	=23
!LO:TX:t=P:problem=mixed beam	!	!	!	!	!	!	!	!	!
8B\L	.	1ryy	1ryy	1ryy	1ryy	1ryy	1ryy	16dd\LL	-ta-
.	.	.	.	.	.	.	.	16b\	.
8B\	.	.	.	.	.	.	.	16a\	.
.	.	.	.	.	.	.	.	16g\JJ	.
8c\	.	.	.	.	.	.	.	16ee\LL	-tes
.	.	.	.	.	.	.	.	16cc\	.
8C/J	.	.	.	.	.	.	.	16b\	.
.	.	.	.	.	.	.	.	16a\JJ	.
8D\L	X #	.	.	.	.	.	.	4d/	e-
8D\	X 3	.	.	.	.	.	.	.	.
8D\	.	.	.	.	.	.	.	4aM>\	.
8D\J	.	.	.	.	.	.	.	.	.
!LO:LB:g=original	!	!	!	!	!	!	!	!	!
=24	=24	=24	=24	=24	=24	=24	=24	=24	=24
8G\L	.	1ryy	1ryy	1ryy	1ryy	1ryy	1ryy	4g\	-ius
8E\	.	.	.	.	.	.	.	.	.
8C\	.	.	.	.	.	.	.	4r	.
8D\J	.	.	.	.	.	.	.	.	.
4GG/	.	.	.	.	.	.	.	2r	.
4r	.	.	.	.	.	.	.	.	.
==	==	==	==	==	==	==	==	==	==
*-	*-	*-	*-	*-	*-	*-	*-	*-	*-
!!!system-decoration: [g1][g2][s8]
!!!RDF**kern: > = above
!!!RDF**kern: < = below
!!!EED: Mateusz Mrugas
!!!EEV: 2021-02-17
!!!ENC: Andrzej Gręziak
!!!END: 2021-02-03
!!!YEC: Copyright 2022 Narodowy Instytut Fryderyka Chopina (https://polishscores.org)
!!!YEM: License CC-BY-4.0 (https://creativecommons.org/licenses/by/4.0)
